lib/brands/logos/figma.svg

<svg xmlns="http://www.w3.org/2000/svg" fill="none" aria-hidden="true" viewBox="0 0 184 74"><g id="Figma"><g id="Union"><path fill="black" d="M4.6001 54.383V5.4389H30.6745V11.5812H10.8881V24.934H26.086V31.1006H10.9123V54.4073L4.6001 54.383Z"/><path fill="black" d="M44.9064 14.184C44.1324 14.958 43.0826 15.3928 41.988 15.3928C40.8934 15.3928 39.8436 14.958 39.0696 14.184C38.2956 13.41 37.8607 12.3602 37.8607 11.2656C37.8607 10.171 38.2956 9.1212 39.0696 8.34719C39.8436 7.57318 40.8934 7.13835 41.988 7.13835C43.0826 7.13835 44.1324 7.57318 44.9064 8.34719C45.6804 9.1212 46.1152 10.171 46.1152 11.2656C46.1152 12.3602 45.6804 13.41 44.9064 14.184Z"/><path fill="black" d="M38.8076 54.4073V21.5351H45.1198V54.4073H38.8076Z"/><path fill="black" fill-rule="evenodd" d="M54.2725 36.0532C54.2725 27.6531 60.0992 20.5882 68.4508 20.5882V20.6125C72.2867 20.6125 75.4428 22.0692 77.7492 24.497V21.5594H84.0614V51.9795C84.0681 54.8854 83.2903 57.7392 81.8101 60.2399C80.3299 62.7406 78.2023 64.7954 75.6515 66.1876C73.1008 67.5798 70.2217 68.2578 67.3177 68.15C64.4138 68.0422 61.5928 67.1526 59.1524 65.5751L62.3085 60.1126C63.8866 61.2293 65.8773 62.0062 67.8924 62.0062C69.1982 62.0031 70.4905 61.7412 71.6945 61.2356C72.8985 60.7301 73.9903 59.9908 74.9069 59.0607C75.8235 58.1306 76.5466 57.028 77.0344 55.8168C77.5223 54.6055 77.7652 53.3095 77.7492 52.0038V47.6338C75.4428 50.0615 72.2867 51.5182 68.4508 51.5182C60.0992 51.5182 54.2725 44.4534 54.2725 36.0532ZM69.1548 26.7305C64.5421 26.7305 60.5605 30.8335 60.5605 36.0532C60.5605 41.273 64.5421 45.3516 69.1548 45.3516C73.7434 45.3516 77.7249 41.273 77.7249 36.0532C77.7249 30.8578 73.7676 26.7305 69.1548 26.7305Z" clip-rule="evenodd"/><path fill="black" d="M106.737 26.7306C104.932 26.7625 103.211 27.5038 101.948 28.7941C100.685 30.0844 99.981 31.82 99.9877 33.6255V54.4074H93.6754V21.5352H99.9877V24.5456C100.932 23.294 102.159 22.2831 103.568 21.5954C104.977 20.9077 106.529 20.5627 108.096 20.5883C112.515 20.5883 115.914 22.7734 117.856 26.1237C118.94 24.4441 120.423 23.0594 122.173 22.0934C123.922 21.1274 125.884 20.6103 127.883 20.5883C135.045 20.5883 139.536 26.3665 139.536 33.5284V54.4074H133.273V33.6013C133.279 31.7957 132.575 30.0601 131.312 28.7698C130.049 27.4795 128.329 26.7383 126.523 26.7064C124.718 26.7383 122.998 27.4795 121.735 28.7698C120.472 30.0601 119.767 31.7957 119.774 33.6013V54.3831H113.462V33.6013C113.469 31.7998 112.768 30.0678 111.51 28.7782C110.252 27.4886 108.538 26.7445 106.737 26.7064V26.7306Z"/><path fill="black" fill-rule="evenodd" d="M168.048 21.7872C169.945 22.5883 171.659 23.7659 173.088 25.2487V21.5351H179.4V54.4073H173.112V50.6685C171.676 52.1598 169.952 53.344 168.045 54.1494C166.138 54.9548 164.087 55.3647 162.017 55.3542C152.646 55.3542 145.994 47.4396 145.994 37.9712C145.994 28.5029 152.646 20.5883 162.017 20.5883C164.088 20.5736 166.14 20.9815 168.048 21.7872ZM173.088 25.2487C173.096 25.2571 173.104 25.2655 173.112 25.2739H173.088V25.2487ZM162.697 26.7306C157.089 26.7306 152.282 31.7076 152.282 37.9712C152.282 44.2349 157.113 49.1876 162.697 49.1876C168.305 49.1876 173.112 44.2349 173.112 37.9712C173.112 31.7076 168.281 26.7306 162.697 26.7306Z" clip-rule="evenodd"/></g></g></svg>

<svg xmlns="http://www.w3.org/2000/svg" fill="none" aria-hidden="true" viewBox="0 0 184 74"><g fill="#000"><path d="M4.6 54.383V5.439h26.074v6.142H10.888v13.353h15.198v6.167H10.912v23.306L4.6 54.383Zm40.306-40.199a4.127 4.127 0 1 1-5.836-5.837 4.127 4.127 0 0 1 5.836 5.837Zm-6.098 40.223V21.535h6.312v32.872h-6.312Z"/><path fill-rule="evenodd" d="M54.273 36.053c0-8.4 5.826-15.465 14.178-15.465v.024c3.836 0 6.992 1.457 9.298 3.885v-2.938h6.312v30.42a16.144 16.144 0 0 1-24.909 13.596l3.157-5.462c1.578 1.116 3.568 1.893 5.583 1.893a9.88 9.88 0 0 0 9.857-10.002v-4.37c-2.306 2.428-5.462 3.884-9.298 3.884-8.352 0-14.178-7.065-14.178-15.465Zm14.882-9.322c-4.613 0-8.595 4.102-8.595 9.322 0 5.22 3.982 9.299 8.595 9.299 4.588 0 8.57-4.079 8.57-9.299 0-5.195-3.957-9.322-8.57-9.322Z" clip-rule="evenodd"/><path d="M106.737 26.73a6.872 6.872 0 0 0-6.75 6.896v20.781h-6.312V21.535h6.313v3.01a9.955 9.955 0 0 1 8.108-3.957c4.419 0 7.818 2.185 9.76 5.536a12.094 12.094 0 0 1 10.027-5.536c7.162 0 11.653 5.778 11.653 12.94v20.88h-6.263V33.6a6.874 6.874 0 0 0-6.75-6.895 6.87 6.87 0 0 0-6.749 6.895v20.782h-6.312V33.601a6.869 6.869 0 0 0-6.725-6.895v.025Z"/><path fill-rule="evenodd" d="M168.048 21.787a15.225 15.225 0 0 1 5.04 3.462v-3.714h6.312v32.872h-6.288V50.67a15.296 15.296 0 0 1-11.095 4.685c-9.371 0-16.023-7.914-16.023-17.383 0-9.468 6.652-17.383 16.023-17.383a15.225 15.225 0 0 1 6.031 1.2Zm5.04 3.462.024.025h-.024v-.025Zm-10.391 1.482c-5.608 0-10.415 4.977-10.415 11.24 0 6.264 4.831 11.217 10.415 11.217 5.608 0 10.415-4.953 10.415-11.217 0-6.263-4.831-11.24-10.415-11.24Z" clip-rule="evenodd"/></g></svg>
